!!!OTL: Bestrafter Vorwitz.
!!!OTL-incipit: MEIN SOHN MEIN SOHN WAS SAGST DU MIR
!!!ARE: Europa, Mitteleuropa, Deutschland
!!!SCT: Z1018
!!!TXL: @@DE
!!!YEM: Copyright 1995, estate of Helmut Schaffrath.
**kern	**text
*ICvox	*
*M6/8	*
*k[]	*
*a:	*
!LO:TX:a:t=Vorſänger.	!
{8e	Mein
=1	=1
4a	Sohn,
8g#	mein
4a	Sohn,
8b	was
=2	=2
4cc	ſagſt
8cc	du
4gn;}	mir?
!LO:TX:a:t=Alle.	!
{8g	Jm
=3	=3
4cc/	Linden
8b/	.
4cc/;}	Grün!
!LO:TX:a:t=Vorſänger.	!
{(16aL	Du
16bJ)	.
=4	=4
4cc	haſt
8dd	er-
4b	-wählt
8cc	ein
=5	=5
4a	trau-
8b/	-tes
8aL	Lieb?
8g#J}	.
!LO:TX:a:t=Alle.	!
{8e	So
=6	=6
4a	ſchweige
8b/	.
4cc/	nun
8b/	von
=7	=7
4a	dei-
8g#	-nem
4a;}	Glück!
==	==
!!!Ag: Romanze, Ballade
!!!ONB: ESAC (Essen Associative Code) Database: ZUCCAL
!!!AMT: compound duple
!!!AIN: vox
!!!EED: Helmut Schaffrath
!!!EEV: 1.0
!!@@COMMENT:"In original fragments with three - four voices"
!!@@END:
!!!GTL: I. Volks- Leuschen.
!!!URL-scan: https://www.digitale-sammlungen.de/de/view/bsb11160573?page=51
!!!ENC: Anna Maria Matuszewska
!!!EEV: 2025/01/31
*-	*-
